flaticon/sewing/ball-of-wool-1.svg

<svg xmlns="http://www.w3.org/2000/svg" width="32" height="32" viewBox="0 0 24 24">
    <path d="M 21.496094 16.90625 C 22.9375 15.121094 23.800781 12.859375 23.800781 10.398438 C 23.800781 6.875 22.023438 3.746094 19.320312 1.863281 C 19.296875 1.839844 19.269531 1.816406 19.238281 1.800781 C 19.226562 1.792969 19.210938 1.785156 19.195312 1.777344 C 17.921875 0.914062 16.445312 0.328125 14.863281 0.105469 C 14.835938 0.0976562 14.8125 0.09375 14.789062 0.09375 C 14.332031 0.03125 13.871094 0 13.398438 0 C 10.457031 0 7.789062 1.238281 5.894531 3.21875 C 5.839844 3.253906 5.796875 3.296875 5.769531 3.355469 C 4.050781 5.210938 3 7.6875 3 10.398438 C 3 12.679688 3.742188 14.789062 4.996094 16.507812 C 4.941406 17.578125 4.082031 18.398438 3 18.398438 C 1.441406 18.398438 0.199219 19.640625 0.199219 21.199219 C 0.199219 22.761719 1.441406 24 3 24 C 4.558594 24 5.800781 22.761719 5.800781 21.199219 C 5.800781 20.960938 5.640625 20.800781 5.398438 20.800781 C 5.160156 20.800781 5 20.960938 5 21.199219 C 5 22.320312 4.121094 23.199219 3 23.199219 C 1.878906 23.199219 1 22.320312 1 21.199219 C 1 20.078125 1.878906 19.199219 3 19.199219 C 4.238281 19.199219 5.273438 18.417969 5.648438 17.316406 C 7.558594 19.449219 10.328125 20.800781 13.398438 20.800781 C 16.570312 20.800781 19.417969 19.363281 21.328125 17.109375 C 21.410156 17.066406 21.464844 16.996094 21.496094 16.90625 Z M 3.941406 12.027344 C 3.847656 11.5 3.800781 10.953125 3.800781 10.398438 C 3.800781 9.898438 3.839844 9.40625 3.914062 8.925781 C 4.171875 9.304688 4.546875 9.679688 5.039062 10.039062 C 7.359375 11.761719 11.558594 13.078125 16.28125 13.078125 C 18.410156 13.078125 20.652344 12.816406 22.824219 12.21875 C 22.527344 13.765625 21.851562 15.179688 20.90625 16.367188 C 11.46875 16.738281 6.214844 15.382812 3.941406 12.027344 Z M 22.949219 11.378906 C 22.914062 11.378906 22.875 11.386719 22.839844 11.398438 C 18.441406 12.640625 10.121094 12.878906 5.519531 9.398438 C 4.71875 8.800781 4.28125 8.160156 4.28125 7.679688 C 4.28125 7.617188 4.269531 7.558594 4.246094 7.507812 C 4.609375 6.375 5.175781 5.332031 5.902344 4.421875 C 6.144531 5 6.621094 5.574219 7.285156 6.101562 C 7.320312 6.144531 7.367188 6.179688 7.421875 6.203125 C 8.4375 6.957031 9.847656 7.59375 11.558594 8.011719 C 11.625 8.054688 11.707031 8.078125 11.800781 8.078125 C 11.820312 8.078125 11.835938 8.078125 11.855469 8.078125 C 13.109375 8.359375 14.515625 8.519531 16.039062 8.519531 C 18.039062 8.519531 20.28125 8.238281 22.558594 7.558594 C 22.5625 7.558594 22.566406 7.558594 22.566406 7.558594 C 22.847656 8.457031 23 9.410156 23 10.398438 C 23 10.730469 22.984375 11.058594 22.949219 11.378906 Z M 18.460938 2.253906 C 16.796875 4.757812 14.757812 7.226562 11.894531 7.277344 C 10.683594 7 9.632812 6.601562 8.777344 6.128906 C 11.523438 5.597656 13.449219 3.265625 14.980469 0.933594 C 16.238281 1.144531 17.417969 1.601562 18.460938 2.253906 Z M 22.300781 6.816406 C 19.273438 7.675781 16.449219 7.867188 14.042969 7.628906 C 16.152344 6.753906 17.769531 4.734375 19.128906 2.710938 C 20.527344 3.757812 21.636719 5.175781 22.300781 6.816406 Z M 13.398438 0.800781 C 13.628906 0.800781 13.855469 0.808594 14.082031 0.824219 C 11.949219 3.976562 10.027344 5.386719 7.734375 5.4375 C 7.023438 4.875 6.59375 4.28125 6.53125 3.710938 C 8.277344 1.917969 10.714844 0.800781 13.398438 0.800781 Z M 4.441406 13.835938 C 6.957031 16.152344 11.332031 17.238281 18.160156 17.238281 C 18.820312 17.238281 19.480469 17.222656 20.164062 17.195312 C 18.425781 18.925781 16.03125 20 13.398438 20 C 9.328125 20 5.832031 17.433594 4.441406 13.835938 Z M 4.441406 13.835938"/>
</svg>

<svg xmlns="http://www.w3.org/2000/svg" width="32" height="32" viewBox="0 0 24 24">
    <path d="M21.496 16.906a10.323 10.323 0 0 0 2.305-6.508c0-3.523-1.778-6.652-4.48-8.535a.326.326 0 0 0-.083-.062.426.426 0 0 0-.043-.024A10.272 10.272 0 0 0 14.863.105 10.224 10.224 0 0 0 13.398 0a10.37 10.37 0 0 0-7.503 3.219.325.325 0 0 0-.125.136 10.338 10.338 0 0 0-.774 13.153A1.977 1.977 0 0 1 3 18.398 2.786 2.786 0 0 0 .2 21.2C.2 22.762 1.44 24 3 24c1.559 0 2.8-1.238 2.8-2.8 0-.24-.16-.4-.402-.4-.238 0-.398.16-.398.4 0 1.12-.879 2-2 2s-2-.88-2-2c0-1.122.879-2 2-2a2.78 2.78 0 0 0 2.648-1.884c1.91 2.133 4.68 3.485 7.75 3.485 3.172 0 6.02-1.438 7.93-3.692a.348.348 0 0 0 .168-.203zM3.941 12.027a9.646 9.646 0 0 1-.027-3.102c.258.38.633.755 1.125 1.114 2.32 1.723 6.52 3.04 11.242 3.04 2.13 0 4.371-.263 6.543-.86a9.555 9.555 0 0 1-1.918 4.148c-9.437.371-14.691-.984-16.965-4.34zm19.008-.648a.359.359 0 0 0-.11.02c-4.398 1.242-12.718 1.48-17.32-2-.8-.598-1.238-1.239-1.238-1.72a.41.41 0 0 0-.035-.171 9.691 9.691 0 0 1 1.656-3.086c.243.578.72 1.152 1.383 1.68a.359.359 0 0 0 .137.101c1.016.754 2.426 1.39 4.137 1.809a.44.44 0 0 0 .242.066h.054c1.254.281 2.66.442 4.184.442 2 0 4.242-.282 6.52-.961h.007a9.488 9.488 0 0 1 .383 3.82zm-4.488-9.125c-1.664 2.504-3.703 4.973-6.566 5.023C10.684 7 9.633 6.602 8.777 6.13c2.746-.531 4.672-2.863 6.203-5.195a9.538 9.538 0 0 1 3.48 1.32zm3.84 4.562c-3.028.86-5.852 1.051-8.258.813 2.11-.875 3.727-2.895 5.086-4.918A9.68 9.68 0 0 1 22.3 6.816zM13.398.801c.23 0 .457.008.684.023-2.133 3.153-4.055 4.563-6.348 4.614-.71-.563-1.14-1.157-1.203-1.727A9.57 9.57 0 0 1 13.398.8zM4.441 13.836c2.516 2.316 6.891 3.402 13.72 3.402.66 0 1.32-.015 2.003-.043A9.573 9.573 0 0 1 13.398 20c-4.07 0-7.566-2.566-8.957-6.164zm0 0"/>
</svg>
